X:1
T:Battle of Jerico
M:12/8
L:1/4
K:C
 A, G,/2 A, B,/2 C B,/2 C- D/2| E3/2 C3/2 E3| D3/2 D3/2 D3| E3/2 E3/2 E- D/2- C- B,/2|\
 A, ^G,/2 A, B,/2 C B,/2 C- D/2| E3/2 C3/2 E3/2 C D/2| E3/2 D3/2 C3/2 B,3/2|\
 A,3- A,3/2 E E/2| A E/2 E E/2 E3/2 D3/2| E/2E/2 E- E E/2E/2 A E/2E/2|\
 E/2 E3/2 C E3-| E3/2 E E/2 A3/2 E3/2| E3/2 C3/2 D3/2- D C| D3/2 C D/2 E E/2 D3/2|\
 C3/2 B,3/2 A,3| z3|
